static/assets/img/icons/theme/food/cake.svg

<svg height="24" viewBox="0 0 24 24" width="24" xmlns="http://www.w3.org/2000/svg"><g fill="none" fill-rule="evenodd"><path d="m0 0h24v24h-24z" opacity="0"/><g fill="#000"><path d="m13 11h4c2.0758626 0 3.7823939 1.5812954 3.980747 3.6050394l-.6878538.6878538c-1.1601164 1.1601164-2.2540971 1.7071068-3.2928932 1.7071068-.4779704 0-.8119336-.1481786-1.4351402-.598012-.0604738-.0436502-.1396238-.1014835-.2891881-.2107241-1.1394836-.8287153-1.9703241-1.1912639-3.2756717-1.1912639-1.2822269 0-2.12105508.3373247-3.41994169 1.1531954-.15272976.0961665-.22928209.1443225-.29868103.1875272-.78219606.4869602-1.21607471.6592774-1.78137728.6592774-.6727915 0-1.31853159-.2828503-1.91460893-.7726326-.37413305-.307416-.63816733-.6138239-.76002213-.7919612-.24013789-.3030172-.32765244-.4134471-.78743323-.988551.26937449-1.9473596 1.94060641-3.4468552 3.96206429-3.4468552h4v-2h2z"/><path d="m12 7c1.1045695 0 2-.8954305 2-2 0-.73637967-.6666667-1.73637967-2-3-1.3333333 1.26362033-2 2.26362033-2 3 0 1.1045695.8954305 2 2 2z" opacity=".3"/><path d="m21 17.3570374v3.6429626c0 .5522847-.4477153 1-1 1h-16c-.55228475 0-1-.4477153-1-1v-3.5023254c.098145.0905958.2035241.1827988.31568417.274958.92520401.7602177 1.99169511 1.2273674 3.18431583 1.2273674 1.02608715 0 1.76628185-.2939723 2.83838848-.9614178.07404186-.0460951.1553847-.0972646.30547797-.1917776 1.00727495-.6327004 1.53968965-.8468046 2.35613355-.8468046.7988191 0 1.2700619.2056332 2.0993283.8087361.1438031.1050451.2289104.1672313.2949956.2149318.9329937.6734391 1.6156502.9763321 2.6056761.9763321 1.3748985 0 2.7104312-.5609363 4-1.6429626z" opacity=".3"/></g></g></svg>

<svg width="24px" height="24px" viewBox="0 0 24 24" version="1.1" xmlns="http://www.w3.org/2000/svg" xmlns:xlink="http://www.w3.org/1999/xlink">
    <title>Icon For Cake</title>
    <g stroke="none" stroke-width="1" fill="none" fill-rule="evenodd">
        <rect opacity="0" x="0" y="0" width="24" height="24"></rect>
        <path d="M13,11 L17,11 C19.0758626,11 20.7823939,12.5812954 20.980747,14.6050394 L20.2928932,15.2928932 C19.1327768,16.4530096 18.0387961,17 17,17 C16.5220296,17 16.1880664,16.8518214 15.5648598,16.401988 C15.504386,16.3583378 15.425236,16.3005045 15.2756717,16.1912639 C14.1361881,15.3625486 13.3053476,15 12,15 C10.7177731,15 9.87894492,15.3373247 8.58005831,16.1531954 C8.42732855,16.2493619 8.35077622,16.2975179 8.28137728,16.3407226 C7.49918122,16.8276828 7.06530257,17 6.5,17 C5.8272085,17 5.18146841,16.7171497 4.58539107,16.2273674 C4.21125802,15.9199514 3.94722374,15.6135435 3.82536894,15.4354062 C3.58523105,15.132389 3.4977165,15.0219591 3.03793571,14.4468552 C3.3073102,12.4994956 4.97854212,11 7,11 L11,11 L11,9 L13,9 L13,11 Z" fill="#000000"></path>
        <path d="M12,7 C13.1045695,7 14,6.1045695 14,5 C14,4.26362033 13.3333333,3.26362033 12,2 C10.6666667,3.26362033 10,4.26362033 10,5 C10,6.1045695 10.8954305,7 12,7 Z" fill="#000000" opacity="0.3"></path>
        <path d="M21,17.3570374 L21,21 C21,21.5522847 20.5522847,22 20,22 L4,22 C3.44771525,22 3,21.5522847 3,21 L3,17.4976746 C3.098145,17.5882704 3.2035241,17.6804734 3.31568417,17.7726326 C4.24088818,18.5328503 5.30737928,19 6.5,19 C7.52608715,19 8.26628185,18.7060277 9.33838848,18.0385822 C9.41243034,17.9924871 9.49377318,17.9413176 9.64386645,17.8468046 C10.6511414,17.2141042 11.1835561,17 12,17 C12.7988191,17 13.2700619,17.2056332 14.0993283,17.8087361 C14.2431314,17.9137812 14.3282387,17.9759674 14.3943239,18.0236679 C15.3273176,18.697107 16.0099741,19 17,19 C18.3748985,19 19.7104312,18.4390637 21,17.3570374 Z" fill="#000000" opacity="0.3"></path>
    </g>
</svg>
